;Generated with Cura_SteamEngine 15.04.6 
M104 S235; set the extruder temp and wait
M140 S95
G28 ; home all axes
M190 S95 ; set the extruder temp and wait
M109 S235
G80 ; Probe
G1 Z5 F5000 ; lift nozzle
;Layer count: 9
M106 S255
G0 X111.94299 Y99.997 Z0.00200
;inner curve no 0
G0 F4800 X112.00075 Y99.99732
G1 F2400 X111.98669 Y100.58150 E0.01948
G1 X111.98661 Y100.58250 E0.01951
G1 X111.94299 Y101.17628 E0.03936
G1 X111.94359 Y101.16995 E0.03957
G1 X111.87089 Y101.76088 E0.05942
G1 X111.87180 Y101.75459 E0.05963
G1 X111.77019 Y102.34124 E0.07947
G1 X111.77140 Y102.33500 E0.07969
G1 X111.64113 Y102.91595 E0.09953
G1 X111.64265 Y102.90978 E0.09974
G1 X111.48403 Y103.48364 E0.11959
G1 X111.48585 Y103.47755 E0.11980
G1 X111.29926 Y104.04294 E0.13965
G1 X111.30138 Y104.03695 E0.13986
G1 X111.08727 Y104.59250 E0.15971
G1 X111.08968 Y104.58662 E0.15992
G1 X110.84858 Y105.13099 E0.17976
G1 X110.85127 Y105.12524 E0.17998
G1 X110.58374 Y105.65713 E0.19982
G1 X110.58672 Y105.65151 E0.20003
G1 X110.29341 Y106.16963 E0.21988
G1 X110.29666 Y106.16417 E0.22009
G1 X109.97828 Y106.66728 E0.23994
G1 X109.98179 Y106.66198 E0.24015
G1 X109.63912 Y107.14886 E0.25999
G1 X109.64288 Y107.14374 E0.26021
G1 X109.27673 Y107.61321 E0.28005
G1 X109.28074 Y107.60828 E0.28026
G1 X108.89199 Y108.05923 E0.30011
G1 X108.89624 Y108.05450 E0.30032
G1 X108.48583 Y108.48583 E0.32017
G1 X108.49031 Y108.48132 E0.32038
G1 X108.05923 Y108.89199 E0.34023
G1 X108.06392 Y108.88770 E0.34044
G1 X107.61321 Y109.27673 E0.36028
G1 X107.61811 Y109.27268 E0.36050
G1 X107.14886 Y109.63912 E0.38034
G1 X107.15395 Y109.63531 E0.38055
G1 X106.66728 Y109.97828 E0.40040
G1 X106.67255 Y109.97473 E0.40061
G1 X106.16963 Y110.29341 E0.42046
G1 X106.17507 Y110.29012 E0.42067
G1 X105.65713 Y110.58374 E0.44052
G1 X105.66272 Y110.58072 E0.44073
G1 X105.13099 Y110.84858 E0.46057
G1 X105.13673 Y110.84584 E0.46079
G1 X104.59250 Y111.08727 E0.48063
G1 X104.59836 Y111.08482 E0.48084
G1 X104.04294 Y111.29926 E0.50069
G1 X104.04892 Y111.29710 E0.50090
G1 X103.48364 Y111.48403 E0.52075
G1 X103.48972 Y111.48216 E0.52096
G1 X102.91595 Y111.64113 E0.54081
G1 X102.92211 Y111.63956 E0.54102
G1 X102.34124 Y111.77019 E0.56086
G1 X102.34747 Y111.76892 E0.56108
G1 X101.76088 Y111.87089 E0.58092
G1 X101.76716 Y111.86993 E0.58113
G1 X101.17628 Y111.94299 E0.60098
G1 X101.18261 Y111.94234 E0.60119
G1 X100.58885 Y111.98632 E0.62104
G1 X100.59520 Y111.98599 E0.62125
G1 X100.00000 Y112.00078 E0.64110
G1 X100.00636 Y112.00075 E0.64131
G1 X99.41115 Y111.98632 E0.66115
G1 X99.41750 Y111.98661 E0.66137
G1 X98.82372 Y111.94299 E0.68121
G1 X98.83005 Y111.94359 E0.68142
G1 X98.23912 Y111.87089 E0.70127
G1 X98.24541 Y111.87180 E0.70148
G1 X97.65876 Y111.77019 E0.72133
G1 X97.66500 Y111.77140 E0.72154
G1 X97.08405 Y111.64113 E0.74139
G1 X97.09022 Y111.64265 E0.74160
G1 X96.51636 Y111.48403 E0.76144
G1 X96.52245 Y111.48585 E0.76165
G1 X95.95706 Y111.29926 E0.78150
G1 X95.96305 Y111.30138 E0.78171
G1 X95.40750 Y111.08727 E0.80156
G1 X95.41338 Y111.08968 E0.80177
G1 X94.86901 Y110.84858 E0.82162
G1 X94.87476 Y110.85127 E0.82183
G1 X94.34287 Y110.58374 E0.84167
G1 X94.34849 Y110.58672 E0.84189
G1 X93.83037 Y110.29341 E0.86173
G1 X93.83583 Y110.29666 E0.86194
G1 X93.33272 Y109.97828 E0.88179
G1 X93.33802 Y109.98179 E0.88200
G1 X92.85114 Y109.63912 E0.90185
G1 X92.85626 Y109.64288 E0.90206
G1 X92.38679 Y109.27673 E0.92191
G1 X92.39172 Y109.28074 E0.92212
G1 X91.94077 Y108.89199 E0.94196
G1 X91.94550 Y108.89624 E0.94218
G1 X91.51417 Y108.48583 E0.96202
G1 X91.51868 Y108.49031 E0.96223
G1 X91.10801 Y108.05923 E0.98208
G1 X91.11230 Y108.06392 E0.98229
G1 X90.72327 Y107.61321 E1.00214
G1 X90.72732 Y107.61811 E1.00235
G1 X90.36088 Y107.14886 E1.02220
G1 X90.36469 Y107.15395 E1.02241
G1 X90.02172 Y106.66728 E1.04225
G1 X90.02527 Y106.67255 E1.04247
G1 X89.70659 Y106.16963 E1.06231
G1 X89.70988 Y106.17507 E1.06252
G1 X89.41626 Y105.65713 E1.08237
G1 X89.41928 Y105.66272 E1.08258
G1 X89.15142 Y105.13099 E1.10243
G1 X89.15416 Y105.13673 E1.10264
G1 X88.91273 Y104.59250 E1.12249
G1 X88.91518 Y104.59836 E1.12270
G1 X88.70074 Y104.04294 E1.14254
G1 X88.70290 Y104.04892 E1.14276
G1 X88.51597 Y103.48364 E1.16260
G1 X88.51784 Y103.48972 E1.16281
G1 X88.35887 Y102.91595 E1.18266
G1 X88.36044 Y102.92211 E1.18287
G1 X88.22981 Y102.34124 E1.20272
G1 X88.23108 Y102.34747 E1.20293
G1 X88.12911 Y101.76088 E1.22278
G1 X88.13007 Y101.76716 E1.22299
G1 X88.05701 Y101.17628 E1.24283
G1 X88.05766 Y101.18261 E1.24305
G1 X88.01368 Y100.58885 E1.26289
G1 X88.01401 Y100.59520 E1.26310
G1 X87.99922 Y100.00000 E1.28295
G1 X87.99925 Y100.00636 E1.28316
G1 X88.01368 Y99.41115 E1.30301
G1 X88.01339 Y99.41750 E1.30322
G1 X88.05701 Y98.82372 E1.32306
G1 X88.05641 Y98.83005 E1.32328
G1 X88.12911 Y98.23912 E1.34312
G1 X88.12820 Y98.24541 E1.34333
G1 X88.22981 Y97.65876 E1.36318
G1 X88.22860 Y97.66500 E1.36339
G1 X88.35887 Y97.08405 E1.38324
G1 X88.35735 Y97.09022 E1.38345
G1 X88.51597 Y96.51636 E1.40330
G1 X88.51415 Y96.52245 E1.40351
G1 X88.70074 Y95.95706 E1.42335
G1 X88.69862 Y95.96305 E1.42357
G1 X88.91273 Y95.40750 E1.44341
G1 X88.91032 Y95.41338 E1.44362
G1 X89.15142 Y94.86901 E1.46347
G1 X89.14873 Y94.87476 E1.46368
G1 X89.41626 Y94.34287 E1.48353
G1 X89.41328 Y94.34849 E1.48374
G1 X89.70659 Y93.83037 E1.50359
G1 X89.70334 Y93.83583 E1.50380
G1 X90.02172 Y93.33272 E1.52364
G1 X90.01821 Y93.33802 E1.52386
G1 X90.36088 Y92.85114 E1.54370
G1 X90.35712 Y92.85626 E1.54391
G1 X90.72327 Y92.38679 E1.56376
G1 X90.71926 Y92.39172 E1.56397
G1 X91.10801 Y91.94077 E1.58382
G1 X91.10376 Y91.94550 E1.58403
G1 X91.51417 Y91.51417 E1.60388
G1 X91.50969 Y91.51868 E1.60409
G1 X91.94077 Y91.10801 E1.62393
G1 X91.93608 Y91.11230 E1.62415
G1 X92.38679 Y90.72327 E1.64399
G1 X92.38189 Y90.72732 E1.64420
G1 X92.85114 Y90.36088 E1.66405
G1 X92.84605 Y90.36469 E1.66426
G1 X93.33272 Y90.02172 E1.68411
G1 X93.32745 Y90.02527 E1.68432
G1 X93.83037 Y89.70659 E1.70417
G1 X93.82493 Y89.70988 E1.70438
G1 X94.34287 Y89.41626 E1.72422
G1 X94.33728 Y89.41928 E1.72444
G1 X94.86901 Y89.15142 E1.74428
G1 X94.86327 Y89.15416 E1.74449
G1 X95.40750 Y88.91273 E1.76434
G1 X95.40164 Y88.91518 E1.76455
G1 X95.95706 Y88.70074 E1.78440
G1 X95.95108 Y88.70290 E1.78461
G1 X96.51636 Y88.51597 E1.80446
G1 X96.51028 Y88.51784 E1.80467
G1 X97.08405 Y88.35887 E1.82451
G1 X97.07789 Y88.36044 E1.82472
G1 X97.65876 Y88.22981 E1.84457
G1 X97.65253 Y88.23108 E1.84478
G1 X98.23912 Y88.12911 E1.86463
G1 X98.23284 Y88.13007 E1.86484
G1 X98.82372 Y88.05701 E1.88469
G1 X98.81739 Y88.05766 E1.88490
G1 X99.41115 Y88.01368 E1.90474
G1 X99.40480 Y88.01401 E1.90496
G1 X100.00000 Y87.99922 E1.92480
G1 X99.99364 Y87.99925 E1.92501
G1 X100.58885 Y88.01368 E1.94486
G1 X100.58250 Y88.01339 E1.94507
G1 X101.17628 Y88.05701 E1.96492
G1 X101.16995 Y88.05641 E1.96513
G1 X101.76088 Y88.12911 E1.98498
G1 X101.75459 Y88.12820 E1.98519
G1 X102.34124 Y88.22981 E2.00503
G1 X102.33500 Y88.22860 E2.00525
G1 X102.91595 Y88.35887 E2.02509
G1 X102.90978 Y88.35735 E2.02530
G1 X103.48364 Y88.51597 E2.04515
G1 X103.47755 Y88.51415 E2.04536
G1 X104.04294 Y88.70074 E2.06521
G1 X104.03695 Y88.69862 E2.06542
G1 X104.59250 Y88.91273 E2.08527
G1 X104.58662 Y88.91032 E2.08548
G1 X105.13099 Y89.15142 E2.10532
G1 X105.12524 Y89.14873 E2.10554
G1 X105.65713 Y89.41626 E2.12538
G1 X105.65151 Y89.41328 E2.12559
G1 X106.16963 Y89.70659 E2.14544
G1 X106.16417 Y89.70334 E2.14565
G1 X106.66728 Y90.02172 E2.16550
G1 X106.66198 Y90.01821 E2.16571
G1 X107.14886 Y90.36088 E2.18556
G1 X107.14374 Y90.35712 E2.18577
G1 X107.61321 Y90.72327 E2.20561
G1 X107.60828 Y90.71926 E2.20583
G1 X108.05923 Y91.10801 E2.22567
G1 X108.05450 Y91.10376 E2.22588
G1 X108.48583 Y91.51417 E2.24573
G1 X108.48132 Y91.50969 E2.24594
G1 X108.89199 Y91.94077 E2.26579
G1 X108.88770 Y91.93608 E2.26600
G1 X109.27673 Y92.38679 E2.28585
G1 X109.27268 Y92.38189 E2.28606
G1 X109.63912 Y92.85114 E2.30590
G1 X109.63531 Y92.84605 E2.30612
G1 X109.97828 Y93.33272 E2.32596
G1 X109.97473 Y93.32745 E2.32617
G1 X110.29341 Y93.83037 E2.34602
G1 X110.29012 Y93.82493 E2.34623
G1 X110.58374 Y94.34287 E2.36608
G1 X110.58072 Y94.33728 E2.36629
G1 X110.84858 Y94.86901 E2.38614
G1 X110.84584 Y94.86327 E2.38635
G1 X111.08727 Y95.40750 E2.40619
G1 X111.08482 Y95.40164 E2.40640
G1 X111.29926 Y95.95706 E2.42625
G1 X111.29710 Y95.95108 E2.42646
G1 X111.48403 Y96.51636 E2.44631
G1 X111.48216 Y96.51028 E2.44652
G1 X111.64113 Y97.08405 E2.46637
G1 X111.63956 Y97.07789 E2.46658
G1 X111.77019 Y97.65876 E2.48642
G1 X111.76892 Y97.65253 E2.48664
G1 X111.87089 Y98.23912 E2.50648
G1 X111.86993 Y98.23284 E2.50669
G1 X111.94299 Y98.82372 E2.52654
G1 X111.94234 Y98.81739 E2.52675
G1 X111.98632 Y99.41115 E2.54660
G1 X111.98599 Y99.40480 E2.54681
G1 X112.00078 Y100.00000 E2.56666
G1 X112.00075 Y99.99732 E2.56675
;inner curve no 1
G0 F4800 X110.09809 Y94.23920
G1 F2400 X109.77537 Y93.39004 E2.59703
G1 X109.77409 Y93.38799 E2.59711
G1 X109.76902 Y93.38031 E2.59742
G1 X109.76300 Y93.37148 E2.59777
G1 X109.32019 Y92.76203 E2.62288
G1 X109.31352 Y92.75344 E2.62325
G1 X108.83215 Y92.17397 E2.64836
G1 X108.82494 Y92.16582 E2.64872
G1 X108.30704 Y91.61876 E2.67383
G1 X108.30078 Y91.61245 E2.67413
G1 X108.29330 Y91.60510 E2.67448
G1 X107.74079 Y91.09301 E2.69959
G1 X107.73257 Y91.08588 E2.69995
G1 X107.14803 Y90.61068 E2.72506
G1 X107.13938 Y90.60408 E2.72543
G1 X106.52528 Y90.16776 E2.75054
G1 X106.51775 Y90.16267 E2.75084
G1 X106.50915 Y90.15703 E2.75118
G1 X105.86787 Y89.76172 E2.77630
G1 X105.85843 Y89.75632 E2.77666
G1 X105.19288 Y89.40340 E2.80177
G1 X105.18311 Y89.39861 E2.80213
G1 X104.49609 Y89.08957 E2.82724
G1 X104.48753 Y89.08597 E2.82755
G1 X104.47819 Y89.08218 E2.82789
G1 X103.77246 Y88.81864 E2.85300
G1 X103.76215 Y88.81518 E2.85336
G1 X103.04082 Y88.59793 E2.87847
G1 X103.03031 Y88.59512 E2.87884
G1 X102.29643 Y88.42507 E2.90395
G1 X102.28714 Y88.42316 E2.90427
G1 X102.27743 Y88.42130 E2.90460
G1 X101.53401 Y88.29953 E2.92971
G1 X101.52322 Y88.29813 E2.93007
G1 X100.77347 Y88.22479 E2.95518
G1 X100.76261 Y88.22407 E2.95554
G1 X100.00968 Y88.19947 E2.98065
G1 X100.00000 Y88.19940 E2.98098
G1 X99.99032 Y88.19947 E2.98130
G1 X99.23739 Y88.22407 E3.00641
G1 X99.22653 Y88.22479 E3.00677
G1 X98.47678 Y88.29813 E3.03189
G1 X98.46599 Y88.29953 E3.03225
G1 X97.72257 Y88.42130 E3.05736
G1 X97.71286 Y88.42316 E3.05769
G1 X97.70357 Y88.42507 E3.05801
G1 X96.96969 Y88.59512 E3.08312
G1 X96.95918 Y88.59793 E3.08348
G1 X96.23785 Y88.81518 E3.10859
G1 X96.22754 Y88.81864 E3.10895
G1 X95.52181 Y89.08218 E3.13406
G1 X95.51247 Y89.08597 E3.13440
G1 X95.50391 Y89.08957 E3.13471
G1 X94.81689 Y89.39861 E3.15982
G1 X94.80712 Y89.40340 E3.16019
G1 X94.14157 Y89.75632 E3.18530
G1 X94.13213 Y89.76172 E3.18566
G1 X93.49085 Y90.15703 E3.21077
G1 X93.48225 Y90.16267 E3.21111
G1 X93.47472 Y90.16776 E3.21142
G1 X92.86062 Y90.60408 E3.23653
G1 X92.85197 Y90.61068 E3.23689
G1 X92.26743 Y91.08588 E3.26200
G1 X92.25921 Y91.09301 E3.26236
G1 X91.70670 Y91.60510 E3.28748
G1 X91.69922 Y91.61245 E3.28783
G1 X91.69296 Y91.61876 E3.28812
G1 X91.17506 Y92.16582 E3.31323
G1 X91.16785 Y92.17397 E3.31360
G1 X90.68648 Y92.75344 E3.33871
G1 X90.67981 Y92.76203 E3.33907
G1 X90.23700 Y93.37148 E3.36418
G1 X90.23076 Y93.38067 E3.36455
G1 X90.22505 Y93.38936 E3.36490
G1 X89.90191 Y94.23920 E3.39521
G1 X99.85511 Y98.15953 E3.75179
G1 X100.00000 Y98.17438 E3.75664
G1 X109.98419 Y94.47461 E4.11156
G1 X110.09809 Y94.23920 E4.12028
;inner curve no 2
G0 F4800 X110.49811 Y94.81644
G1 F2400 X110.61597 Y94.84672 E4.12434
G1 X110.61962 Y94.85439 E4.12462
G1 X110.62312 Y94.86184 E4.12490
G1 X110.92941 Y95.55009 E4.15001
G1 X110.93349 Y95.56017 E4.15037
G1 X111.19454 Y96.26683 E4.17548
G1 X111.19797 Y96.27715 E4.17584
G1 X111.41267 Y96.99924 E4.20096
G1 X111.41545 Y97.00976 E4.20132
G1 X111.58290 Y97.74424 E4.22643
G1 X111.58469 Y97.75301 E4.22673
G1 X111.58664 Y97.76324 E4.22708
G1 X111.70579 Y98.50709 E4.25219
G1 X111.70715 Y98.51788 E4.25255
G1 X111.77785 Y99.26789 E4.27766
G1 X111.77853 Y99.27874 E4.27802
G1 X111.80048 Y100.03175 E4.30314
G1 X111.80053 Y100.04090 E4.30344
G1 X111.80044 Y100.05112 E4.30378
G1 X111.77318 Y100.80396 E4.32889
G1 X111.77243 Y100.81481 E4.32926
G1 X111.69644 Y101.56430 E4.35437
G1 X111.69501 Y101.57508 E4.35473
G1 X111.57061 Y102.31807 E4.37984
G1 X111.56884 Y102.32725 E4.38015
G1 X111.56681 Y102.33706 E4.38049
G1 X111.39417 Y103.07034 E4.40560
G1 X111.39133 Y103.08084 E4.40596
G1 X111.17154 Y103.80140 E4.43107
G1 X111.16804 Y103.81170 E4.43144
G1 X110.90201 Y104.51649 E4.45655
G1 X110.89841 Y104.52534 E4.45687
G1 X110.89459 Y104.53438 E4.45719
G1 X110.58313 Y105.22031 E4.48230
G1 X110.57830 Y105.23006 E4.48267
G1 X110.22304 Y105.89436 E4.50778
G1 X110.21761 Y105.90378 E4.50814
G1 X109.82004 Y106.54367 E4.53325
G1 X109.81468 Y106.55181 E4.53358
G1 X109.80929 Y106.55977 E4.53390
G1 X109.37079 Y107.17233 E4.55901
G1 X109.36417 Y107.18096 E4.55937
G1 X108.88690 Y107.76382 E4.58448
G1 X108.87975 Y107.77202 E4.58485
G1 X108.36572 Y108.32272 E4.60996
G1 X108.35873 Y108.32981 E4.61029
G1 X108.35203 Y108.33643 E4.61060
G1 X107.80315 Y108.85240 E4.63572
G1 X107.79498 Y108.85958 E4.63608
G1 X107.21380 Y109.33890 E4.66119
G1 X107.20520 Y109.34555 E4.66155
G1 X106.59419 Y109.78620 E4.68666
G1 X106.58579 Y109.79191 E4.68700
G1 X106.57810 Y109.79699 E4.68731
G1 X105.93963 Y110.19681 E4.71242
G1 X105.93022 Y110.20227 E4.71278
G1 X105.26718 Y110.55988 E4.73789
G1 X105.25744 Y110.56473 E4.73826
G1 X104.57262 Y110.87862 E4.76337
G1 X104.56309 Y110.88266 E4.76371
G1 X104.55474 Y110.88607 E4.76402
G1 X103.85089 Y111.15458 E4.78913
G1 X103.84060 Y111.15811 E4.78949
G1 X103.12083 Y111.38045 E4.81460
G1 X103.11034 Y111.38332 E4.81496
G1 X102.37767 Y111.55855 E4.84007
G1 X102.36734 Y111.56070 E4.84043
G1 X102.35868 Y111.56238 E4.84072
G1 X101.61614 Y111.68940 E4.86583
G1 X101.60536 Y111.69087 E4.86619
G1 X100.85615 Y111.76950 E4.89131
G1 X100.84462 Y111.77031 E4.89169
G1 X100.83707 Y111.77069 E4.89194
G1 X99.93996 Y111.62560 E4.92224
G1 X99.79303 Y111.40926 E4.93095
G1 X101.58103 Y100.91281 E5.28587
G1 X101.66634 Y100.79476 E5.29073
G1 X110.03805 Y94.13520 E5.64731
G1 X110.49811 Y94.81644 E5.67471
;inner curve no 3
G0 F4800 X89.96197 Y94.13517
G1 F2400 X89.39048 Y94.83407 E5.70481
G1 X89.38788 Y94.83901 E5.70500
G1 X89.38275 Y94.84946 E5.70539
G1 X89.07776 Y95.53269 E5.73033
G1 X89.07434 Y95.54086 E5.73062
G1 X89.07042 Y95.55055 E5.73097
G1 X88.81038 Y96.25212 E5.75591
G1 X88.80695 Y96.26238 E5.75627
G1 X88.59260 Y96.97924 E5.78121
G1 X88.58983 Y96.98968 E5.78158
G1 X88.42205 Y97.71885 E5.80652
G1 X88.42020 Y97.72791 E5.80683
G1 X88.41831 Y97.73779 E5.80716
G1 X88.29818 Y98.47630 E5.83210
G1 X88.29680 Y98.48702 E5.83246
G1 X88.22445 Y99.23174 E5.85740
G1 X88.22374 Y99.24252 E5.85776
G1 X88.19946 Y99.99035 E5.88270
G1 X88.19940 Y100.00000 E5.88303
G1 X88.19943 Y100.00847 E5.88331
G1 X88.21349 Y100.57641 E5.90225
G1 X88.25492 Y101.14307 E5.92118
G1 X88.25571 Y101.15149 E5.92147
G1 X88.32477 Y101.71543 E5.94041
G1 X88.32598 Y101.72381 E5.94069
G1 X88.42251 Y102.28370 E5.95963
G1 X88.42412 Y102.29201 E5.95991
G1 X88.54788 Y102.84652 E5.97885
G1 X88.54990 Y102.85473 E5.97913
G1 X88.70060 Y103.40254 E5.99807
G1 X88.70302 Y103.41064 E5.99835
G1 X88.88030 Y103.95044 E6.01729
G1 X88.88311 Y103.95841 E6.01757
G1 X89.08654 Y104.48890 E6.03651
G1 X89.08974 Y104.49673 E6.03679
G1 X89.31885 Y105.01665 E6.05573
G1 X89.32243 Y105.02431 E6.05601
G1 X89.57665 Y105.53242 E6.07495
G1 X89.58060 Y105.53990 E6.07523
G1 X89.85935 Y106.03498 E6.09417
G1 X89.86366 Y106.04226 E6.09445
G1 X90.16625 Y106.52313 E6.11339
G1 X90.17091 Y106.53019 E6.11367
G1 X90.49664 Y106.99571 E6.13261
G1 X90.50163 Y107.00253 E6.13289
G1 X90.84971 Y107.45158 E6.15183
G1 X90.85504 Y107.45815 E6.15211
G1 X91.22463 Y107.88966 E6.17105
G1 X91.23027 Y107.89596 E6.17133
G1 X91.62050 Y108.30891 E6.19027
G1 X91.62645 Y108.31493 E6.19055
G1 X92.03638 Y108.70832 E6.20949
G1 X92.04261 Y108.71404 E6.20977
G1 X92.47128 Y109.08693 E6.22871
G1 X92.47778 Y109.09234 E6.22900
G1 X92.92415 Y109.44385 E6.24793
